X: 41482
T: Tyrellstown House
R: jig
M: 6/8
K: Dmixolydian
|:dge ~f2d|cAG FGA|DGG DAA|BAG ABc|
dge ~f2d|cAG FGA|DGG A2G|1 FDE D3:|2 FDE D2G||
K: Ador
|:EAG A2B|cAB cAG|EAG ~A2B|G3 GFD|
EAG ~A2B|cAB cde|~g3 ege|1 dBA A2G:|2 dBG ABc||

